X: 8
T:Dooley
C:Rodney Dillard and Mitchell F. Jayne
R: Bluegrass
M:4/4
L:1/4 
K:C
N:Copyright 1963 and 1991 Lansdowne Music - Winston Music Publishers ASCAP
"C"GGG3/G/|"F"A c c A|"C"GGcc|"G7"d4|
w:Doo-ley was a good old man he lived be-low the mill
"C"eeee|"F"dccd|"C"ec"G7"dB|"C"c4| GGG3/G/|
w:Doo-ley had two daugh-ters and a for-ty gal-lon still. One gal watched the
"F"Ac2a|"C"GGcc|"G7"d3 c|e/e3/e3/ e/|"F"d ccd|
w:boil-er the oth-er watched the spout and ma-ma corked the bot-tles when old
"C"ec"G7"dB|"C"c4||:"C"G2e2|e/e/e/e/dc|"F"A2f2|
w:Doo-ley fetched them out. Doo-ley slip-pin' up the hol-ler Doo-ley
e/e/e/e/ d c |"C"G2e2|ee/e/ d/c/c/d/|
w:tryin' to make a dol-lar Doo-ley give me a swal-ler and I'll
"G7"eedd|"C"c3 A|| "C"GGGG "F"A c-c A|
w:pay you back some-day. The rev-en-u-ers came for him a-
w:_____Now Doo-ley's on the moun-tain _he
"C"GGcc| "G7"d3 d|"C"eeee|"F"dccd|"C"e c"G7"d B|
w:slip-pin thru the woods _Doo-ley kept be-hind them all and nev-er lost his
w:lies there all a-lone They put a jug be-side him and a bar-rel for a
"C"c4|GGGG |"F"A c2 A|"C"GG c c|"G7"d4|"C"e e e e|
w:goods Doo-ley was a trad-er when in-to town he come su-gar by the
w:stone. [Back to chorus]
"F"dc2c/d/|"C"ec"G7"dc|"C"c4|GGGG |"F"A ccA|
w:bush-el and mo-las-ses by the ton. I re-mem-ber ver-y well the
"C"GGcc|"G7"d3 c|"C"eeee|"F"d c2 c/d/|"C"e c "G7"d B|"C" c4||
w:day old Doo-ley died The wo-men folk lookede sor-ry and the men stood 'round and cried.

